X: 801
T: Con Casey's Jig.
B:O'Neill's Music of Ireland
N:O'Neill's - 801
Z:Transcribed by Stephen Foy (shf@access.digex.net)
Z:abc 1.6
Z:All ornaments (~) are trills.
R:Jig
M:6/8
K:Ddor
(A/G/)|EAE AEA|~G3 GEG|EAE AEd|AGE EDC|\
EAE AEA|~G3 GAB|cBA BGE|EDD D2:|
||e|fed ecA|GEE Gce|fed ecA|GEG A2 e|\
fed ecA|~G2 E GAB|cBA BGE|EDD D2:|


